X: 709
T: MALOWNEY'S WIFE
M:6/8
L:1/8
B:O'NEILL'S 709
N:"collected by Ennis"
Z:Transcribed by A. LEE WORMAN
K:D
(A/G/)|F2 A AFA|AFA AFD|GBG FGA|BGE E2 (A/G/)|
F2 A AFA|AFA d2 A|Bcd AFd|AFD D2:|
||d|ecA Bcd|ecA AGF|GBG FGA|BGE E2 d|
ecA Bcd|ecA d2 A|Bcd AFd|AFD D2:|
||(f/g/)|afa gfe|fed cBA|BdB AFA|BGE E2 (f/g/)|
afa gfe|fed cBA|BdB AFd|AFD D2:|


